flaticon/design/cube-1.svg

<svg xmlns="http://www.w3.org/2000/svg" width="32" height="32" viewBox="0 0 24 24">
    <path d="M 22.785156 5.496094 C 22.785156 5.488281 22.777344 5.480469 22.777344 5.472656 C 22.769531 5.445312 22.757812 5.421875 22.746094 5.402344 C 22.738281 5.390625 22.730469 5.378906 22.722656 5.367188 C 22.710938 5.351562 22.695312 5.332031 22.679688 5.316406 C 22.671875 5.308594 22.660156 5.296875 22.648438 5.289062 C 22.636719 5.28125 22.628906 5.269531 22.617188 5.261719 C 22.609375 5.257812 22.601562 5.257812 22.59375 5.253906 C 22.589844 5.25 22.585938 5.246094 22.578125 5.242188 L 12.179688 0.0429688 C 12.175781 0.0390625 12.171875 0.0429688 12.167969 0.0390625 C 12.117188 0.015625 12.058594 0 12 0 C 11.941406 0 11.882812 0.015625 11.832031 0.0390625 C 11.828125 0.0429688 11.824219 0.0390625 11.820312 0.0429688 L 1.421875 5.242188 C 1.414062 5.246094 1.410156 5.25 1.40625 5.253906 C 1.398438 5.257812 1.390625 5.257812 1.382812 5.261719 C 1.371094 5.269531 1.363281 5.28125 1.351562 5.289062 C 1.339844 5.296875 1.328125 5.308594 1.320312 5.316406 C 1.304688 5.332031 1.289062 5.351562 1.277344 5.367188 C 1.269531 5.378906 1.261719 5.390625 1.253906 5.398438 C 1.242188 5.421875 1.234375 5.445312 1.222656 5.472656 C 1.222656 5.480469 1.21875 5.488281 1.214844 5.496094 C 1.207031 5.53125 1.199219 5.566406 1.199219 5.601562 L 1.199219 18.398438 C 1.199219 18.402344 1.203125 18.40625 1.203125 18.40625 C 1.203125 18.414062 1.203125 18.421875 1.203125 18.429688 C 1.207031 18.472656 1.21875 18.511719 1.230469 18.546875 C 1.234375 18.554688 1.234375 18.5625 1.238281 18.566406 C 1.238281 18.574219 1.246094 18.578125 1.25 18.585938 C 1.257812 18.605469 1.269531 18.621094 1.285156 18.636719 C 1.292969 18.652344 1.304688 18.664062 1.316406 18.679688 C 1.328125 18.691406 1.34375 18.703125 1.359375 18.714844 C 1.375 18.726562 1.390625 18.738281 1.40625 18.746094 C 1.410156 18.75 1.414062 18.753906 1.421875 18.757812 L 11.820312 23.957031 C 11.828125 23.960938 11.832031 23.957031 11.839844 23.960938 C 11.890625 23.984375 11.945312 24 12 24 C 12.054688 24 12.109375 23.984375 12.160156 23.960938 C 12.167969 23.960938 12.171875 23.960938 12.179688 23.957031 L 22.578125 18.757812 C 22.714844 18.691406 22.800781 18.550781 22.800781 18.398438 L 22.800781 5.601562 C 22.800781 5.566406 22.796875 5.53125 22.785156 5.496094 Z M 2.691406 17.898438 C 2.597656 17.695312 2.359375 17.609375 2.160156 17.703125 L 2 17.773438 L 2 6.226562 L 11.601562 10.65625 L 11.601562 22.953125 L 2.515625 18.410156 C 2.699219 18.3125 2.777344 18.089844 2.691406 17.898438 Z M 12 1.199219 C 12.140625 1.199219 12.257812 1.121094 12.332031 1.011719 L 21.476562 5.585938 L 12.398438 9.773438 L 12.398438 9.601562 C 12.398438 9.378906 12.222656 9.199219 12 9.199219 C 11.777344 9.199219 11.601562 9.378906 11.601562 9.601562 L 11.601562 9.773438 L 2.523438 5.585938 L 11.667969 1.011719 C 11.742188 1.121094 11.859375 1.199219 12 1.199219 Z M 12.398438 14.226562 L 13.054688 14.527344 C 13.109375 14.550781 13.164062 14.5625 13.222656 14.5625 C 13.371094 14.5625 13.519531 14.476562 13.585938 14.332031 C 13.675781 14.128906 13.589844 13.894531 13.390625 13.800781 L 12.664062 13.464844 C 12.578125 13.425781 12.484375 13.425781 12.398438 13.445312 L 12.398438 10.65625 L 22 6.226562 L 22 17.773438 L 21.378906 17.488281 C 21.179688 17.394531 20.941406 17.484375 20.847656 17.683594 C 20.757812 17.882812 20.84375 18.121094 21.042969 18.214844 L 21.476562 18.414062 L 12.398438 22.953125 Z M 12.398438 14.226562"/>
    <path d="M8.136719 15.78125C8.195312 15.78125 8.25 15.769531 8.304688 15.746094L9.03125 15.410156C9.230469 15.320312 9.320312 15.082031 9.226562 14.878906 9.132812 14.679688 8.894531 14.59375 8.695312 14.683594L7.96875 15.019531C7.769531 15.113281 7.679688 15.351562 7.773438 15.550781 7.839844 15.695312 7.988281 15.78125 8.136719 15.78125zM5.957031 16.789062C6.015625 16.789062 6.070312 16.777344 6.125 16.75L6.851562 16.417969C7.050781 16.324219 7.140625 16.085938 7.046875 15.886719 6.957031 15.683594 6.71875 15.597656 6.515625 15.691406L5.789062 16.023438C5.589844 16.117188 5.503906 16.355469 5.59375 16.554688 5.664062 16.703125 5.808594 16.789062 5.957031 16.789062zM3.777344 17.792969C3.835938 17.792969 3.890625 17.78125 3.945312 17.757812L4.671875 17.421875C4.875 17.328125 4.960938 17.089844 4.867188 16.890625 4.777344 16.691406 4.539062 16.601562 4.335938 16.695312L3.609375 17.03125C3.410156 17.125 3.324219 17.359375 3.414062 17.5625 3.484375 17.707031 3.628906 17.792969 3.777344 17.792969zM17.746094 15.8125L17.019531 15.476562C16.820312 15.382812 16.582031 15.472656 16.492188 15.671875 16.398438 15.871094 16.484375 16.109375 16.6875 16.203125L17.414062 16.539062C17.46875 16.5625 17.523438 16.574219 17.578125 16.574219 17.730469 16.574219 17.875 16.488281 17.941406 16.34375 18.035156 16.140625 17.949219 15.90625 17.746094 15.8125zM19.925781 16.816406L19.199219 16.484375C19 16.390625 18.761719 16.476562 18.667969 16.679688 18.578125 16.878906 18.664062 17.117188 18.863281 17.210938L19.589844 17.542969C19.644531 17.570312 19.703125 17.582031 19.757812 17.582031 19.910156 17.582031 20.054688 17.496094 20.121094 17.347656 20.214844 17.148438 20.128906 16.910156 19.925781 16.816406zM15.570312 14.808594L14.84375 14.472656C14.640625 14.378906 14.402344 14.464844 14.3125 14.667969 14.21875 14.867188 14.304688 15.105469 14.507812 15.199219L15.234375 15.53125C15.289062 15.558594 15.34375 15.570312 15.402344 15.570312 15.550781 15.570312 15.695312 15.484375 15.761719 15.335938 15.855469 15.136719 15.769531 14.898438 15.570312 14.808594zM10.316406 14.777344C10.371094 14.777344 10.429688 14.765625 10.484375 14.738281L11.210938 14.40625C11.410156 14.3125 11.5 14.074219 11.40625 13.875 11.3125 13.671875 11.074219 13.585938 10.875 13.679688L10.148438 14.011719C9.949219 14.105469 9.859375 14.34375 9.953125 14.542969 10.019531 14.691406 10.164062 14.777344 10.316406 14.777344zM12 3.601562C12.222656 3.601562 12.398438 3.421875 12.398438 3.199219L12.398438 2.398438C12.398438 2.179688 12.222656 2 12 2 11.777344 2 11.601562 2.179688 11.601562 2.398438L11.601562 3.199219C11.601562 3.421875 11.777344 3.601562 12 3.601562zM12 6C12.222656 6 12.398438 5.820312 12.398438 5.601562L12.398438 4.800781C12.398438 4.578125 12.222656 4.398438 12 4.398438 11.777344 4.398438 11.601562 4.578125 11.601562 4.800781L11.601562 5.601562C11.601562 5.820312 11.777344 6 12 6zM12 8.398438C12.222656 8.398438 12.398438 8.222656 12.398438 8L12.398438 7.199219C12.398438 6.980469 12.222656 6.800781 12 6.800781 11.777344 6.800781 11.601562 6.980469 11.601562 7.199219L11.601562 8C11.601562 8.222656 11.777344 8.398438 12 8.398438zM12 8.398438"/>
</svg>

<svg xmlns="http://www.w3.org/2000/svg" width="32" height="32" viewBox="0 0 24 24">
    <path d="M22.785 5.496c0-.008-.008-.016-.008-.023a.293.293 0 0 0-.03-.07l-.024-.036a.495.495 0 0 0-.043-.05c-.008-.008-.02-.02-.032-.028-.011-.008-.02-.02-.03-.027-.009-.004-.016-.004-.024-.008-.004-.004-.008-.008-.016-.012L12.18.043c-.004-.004-.008 0-.012-.004A.408.408 0 0 0 12 0a.408.408 0 0 0-.168.04c-.004.003-.008 0-.012.003l-10.398 5.2c-.008.003-.012.007-.016.01-.008.005-.015.005-.023.009-.012.008-.02.02-.031.027-.012.008-.024.02-.032.027a.495.495 0 0 0-.043.051c-.007.012-.015.024-.023.031-.012.024-.02.047-.031.075a.492.492 0 0 0-.023.129v12.796c0 .004.003.008.003.008v.024a.515.515 0 0 0 .027.117c.004.008.004.015.008.02 0 .007.008.011.012.019.008.02.02.035.035.05.008.016.02.028.031.044l.043.035c.016.012.032.023.047.031a.054.054 0 0 0 .016.012l10.398 5.199c.008.004.012 0 .02.004.05.023.105.039.16.039.055 0 .11-.016.16-.04.008 0 .012 0 .02-.003l10.398-5.2a.4.4 0 0 0 .223-.359V5.602a.329.329 0 0 0-.016-.106zM2.691 17.898a.398.398 0 0 0-.53-.195l-.161.07V6.227l9.602 4.43v12.296L2.516 18.41a.395.395 0 0 0 .175-.512zM12 1.2c.14 0 .258-.078.332-.187l9.145 4.574-9.079 4.187v-.171a.398.398 0 1 0-.796 0v.171L2.523 5.586l9.145-4.574c.074.11.191.187.332.187zm.398 13.028l.657.3a.403.403 0 0 0 .531-.195.403.403 0 0 0-.195-.531l-.727-.336a.416.416 0 0 0-.266-.02v-2.789L22 6.226v11.547l-.621-.285a.401.401 0 0 0-.531.196c-.09.199-.004.437.195.53l.434.2-9.079 4.54zm0 0"/>
    <path d="M8.137 15.781a.418.418 0 0 0 .168-.035l.726-.336c.2-.09.29-.328.196-.531a.405.405 0 0 0-.532-.195l-.726.336a.401.401 0 0 0-.196.53c.067.145.215.231.364.231zm0 0M5.957 16.79a.365.365 0 0 0 .168-.04l.727-.332c.199-.094.289-.332.195-.531a.396.396 0 0 0-.531-.196l-.727.332a.405.405 0 0 0-.195.532c.07.148.215.234.363.234zm0 0M3.777 17.793a.418.418 0 0 0 .168-.035l.727-.336a.398.398 0 0 0 .195-.531.399.399 0 0 0-.531-.196l-.727.336a.403.403 0 0 0-.195.532c.07.144.215.23.363.23zm0 0M17.746 15.813l-.726-.336a.396.396 0 0 0-.528.195.398.398 0 0 0 .195.531l.727.336a.399.399 0 0 0 .332-.727zm0 0M19.926 16.816l-.727-.332a.398.398 0 0 0-.531.196c-.09.199-.004.437.195.53l.727.333a.396.396 0 0 0 .531-.195.398.398 0 0 0-.195-.532zm0 0M15.57 14.809l-.726-.336a.396.396 0 0 0-.531.195.398.398 0 0 0 .195.531l.726.332c.055.028.11.04.168.04a.394.394 0 0 0 .36-.235.394.394 0 0 0-.192-.527zm0 0M10.316 14.777a.377.377 0 0 0 .168-.039l.727-.332c.2-.094.289-.332.195-.531a.398.398 0 0 0-.531-.195l-.727.332a.401.401 0 0 0 .168.765zm0 0M12 3.602c.223 0 .398-.18.398-.403v-.8a.398.398 0 1 0-.796 0v.8c0 .223.175.403.398.403zm0 0M12 6c.223 0 .398-.18.398-.398V4.8a.398.398 0 1 0-.796 0v.8c0 .22.175.399.398.399zm0 0M12 8.398A.395.395 0 0 0 12.398 8v-.8a.398.398 0 1 0-.796 0V8c0 .223.175.398.398.398zm0 0"/>
</svg>
